/* XPM */
static char *_711b0a29bb747abdd2928f0fa173128YYBZEBXN2hbAHps7[] = {
/* columns rows colors chars-per-pixel */
"64 64 244 2 ",
"   c #050100",
".  c #090100",
"X  c #080A00",
"o  c #0F1300",
"O  c #141604",
"+  c #1A1503",
"@  c #161904",
"#  c #1B1A03",
"$  c #15160A",
"%  c #161C0A",
"&  c #1B1C0B",
"*  c #1A160B",
"=  c #1D1B12",
"-  c #1C1711",
";  c #231501",
":  c #231B01",
">  c #2B1F0D",
",  c #271804",
"<  c #361807",
"1  c #231D15",
"2  c #291E15",
"3  c #231E1A",
"4  c #291F1A",
"5  c #2A0D00",
"6  c #1D210C",
"7  c #1A2102",
"8  c #1F2010",
"9  c #252C0D",
"0  c #25280D",
"q  c #372908",
"w  c #29310B",
"e  c #3A330D",
"r  c #33320A",
"t  c #252315",
"y  c #2B2216",
"u  c #242B14",
"i  c #2A2C15",
"p  c #26221B",
"a  c #2C241B",
"s  c #262B1B",
"d  c #2C2B1C",
"f  c #332C15",
"g  c #31261D",
"h  c #322A1E",
"j  c #3B2D1B",
"k  c #3A2616",
"l  c #2A3114",
"z  c #2B311B",
"x  c #273319",
"c  c #333115",
"v  c #34321D",
"b  c #3B321C",
"n  c #393619",
"m  c #2C2622",
"M  c #2D2A23",
"N  c #2A2626",
"B  c #332722",
"V  c #342C23",
"C  c #392E25",
"Z  c #342E29",
"A  c #392F29",
"S  c #392726",
"D  c #353125",
"F  c #3A3226",
"G  c #343A25",
"H  c #3C3A26",
"J  c #36322A",
"K  c #3B332B",
"L  c #3C3A2C",
"P  c #373C2B",
"I  c #302C31",
"U  c #343230",
"Y  c #3C3531",
"T  c #3E3B32",
"R  c #373832",
"E  c #411C0D",
"W  c #441A15",
"Q  c #422217",
"!  c #452F05",
"~  c #412E2A",
"^  c #41352C",
"/  c #433B2D",
"(  c #453827",
")  c #453D33",
"_  c #4A3D35",
"`  c #4A3E39",
"'  c #443631",
"]  c #593A39",
"[  c #673938",
"{  c #3B4A14",
"}  c #34450F",
"|  c #3D412C",
" . c #3E4131",
".. c #3F5030",
"X. c #42432E",
"o. c #454D2C",
"O. c #4A4E2D",
"+. c #4B432F",
"@. c #574D2A",
"#. c #46522D",
"$. c #4B532E",
"%. c #4B582C",
"&. c #52522D",
"*. c #50582F",
"=. c #454234",
"-. c #4A4135",
";. c #4B4E33",
":. c #474239",
">. c #4B433A",
",. c #4C4D3B",
"<. c #464D34",
"1. c #524F33",
"2. c #52443B",
"3. c #554B3D",
"4. c #594D3E",
"5. c #5A4C3E",
"6. c #504235",
"7. c #455131",
"8. c #4C5433",
"9. c #4E5934",
"0. c #4D543A",
"q. c #4E593B",
"w. c #46543B",
"e. c #525434",
"r. c #525935",
"t. c #52553B",
"y. c #5A523D",
"u. c #525A3A",
"i. c #585332",
"p. c #68433B",
"a. c #7C5736",
"s. c #7E6738",
"d. c #7C602E",
"f. c #414812",
"g. c #554C43",
"h. c #584B42",
"j. c #5A4D41",
"k. c #5A4D44",
"l. c #5A4D44",
"z. c #564E49",
"x. c #584F48",
"c. c #4F5741",
"v. c #545244",
"b. c #5B5145",
"n. c #565249",
"m. c #5C524A",
"M. c #565944",
"N. c #6D4A49",
"B. c #676D4C",
"V. c #766943",
"C. c #66724D",
"Z. c #69734E",
"A. c #656D53",
"S. c #696D54",
"D. c #6C6958",
"F. c #766B56",
"G. c #667252",
"H. c #6A7453",
"J. c #6D725A",
"K. c #6C7856",
"L. c #777257",
"P. c #74734D",
"I. c #7E7362",
"U. c #796D61",
"Y. c #89582D",
"T. c #90743E",
"R. c #A7763E",
"E. c #885758",
"W. c #95595C",
"Q. c #854B4F",
"!. c #86765C",
"~. c #987C57",
"^. c #9D7341",
"/. c #A77B47",
"(. c #A97B55",
"). c #975E63",
"_. c #977C68",
"`. c #916363",
"'. c #A57D63",
"]. c #99845B",
"[. c #948457",
"{. c #A5865C",
"}. c #A7834C",
"|. c #938B6B",
" X c #9C8B6B",
".X c #998667",
"XX c #8D9A65",
"oX c #979868",
"OX c #958671",
"+X c #948C72",
"@X c #9B8D72",
"#X c #9A8977",
"$X c #989274",
"%X c #8D8967",
"&X c #A2896A",
"*X c #BB9A67",
"=X c #A18875",
"-X c #B0986D",
";X c #99A268",
":X c #9AA574",
">X c #B7A275",
",X c #C69A66",
"<X c #C69C70",
"1X c #D29367",
"2X c #C5A062",
"3X c #A09484",
"4X c #CEBA81",
"5X c #DED59E",
"6X c #EFD69E",
"7X c #DCD4A4",
"8X c #DDDBAB",
"9X c #DDD6AB",
"0X c #DED5B1",
"qX c #DDDAB3",
"wX c #DCD8BA",
"eX c #DDCFB2",
"rX c #E5D5A3",
"tX c #E6DAA6",
"yX c #ECD9A5",
"uX c #E3D5AC",
"iX c #EBD5AC",
"pX c #E4DBAC",
"aX c #EBDBAB",
"sX c #EBD5A4",
"dX c #F2D8A6",
"fX c #E4D6B2",
"gX c #ECD3B3",
"hX c #E4DBB4",
"jX c #E9DBB3",
"kX c #E4DABA",
"lX c #EADCBA",
"zX c #E2D5BC",
"xX c #F2DAB5",
"cX c #E8CFA7",
"vX c #DEE1AB",
"bX c #DEE2B3",
"nX c #E4E0AD",
"mX c #E7E1B7",
"MX c #E8DCC3",
"NX c #FAFCC8",
"BX c #FDFDD3",
"VX c #FEFCDA",
"CX c #F8F5DA",
"ZX c #FFFCE8",
/* pixels */
"j.j.j.5.5.5.j.j.3.6./ _ _ 6.5.3.5.5.5.4.5.4.4.4.l.j.h.j.g.5.3.3.3.5.5.5.j.j.j.h.l.h.j.j.3.=.=./ F _ _ h.h.k._ K -.g.b.k.g.g.h.l.",
"3.3.j.j.j.5.j.5.-./ C F ~ / j.b.j.3.j.5.5.3.5.j.j.k.k.k.j.j.5.5.5.5.3.3.5.j.j.j.l.h.j.-._ L =.F F ) -.k.j.l._ K K ) >.g.b.k.j.l.",
"m.j.3.-.' K K F h h V F ^ ^ _ _ ) -.-.=.b.3.b.3.j.j.k.k.h.h.j.j.j.4.j.j.j.j.3.-.) >.-.) =.L F F _ _ h.l._ _ ^ h C V V F ' _ >.g.",
"C C V V V V V V B V C K ' ) >.>.:.>.=.D.-.+.H / ) ) ) _ _ _ _ _ _ _ ) ) _ _ _ _ ' ' -.F F v D.F K _ >._ 2._ K ^ F V h D F h g V ",
"C V B B C K K K K K Y ) ` :.>.) ) =.& J.J.d v h V V B V C A ~ ~ ~ ~ ^ ~ ^ ^ ^ K K ^ K v H S.J.# >.) -._ _ >._ K a a B K K B g C ",
"K K K ) :.>.>.:.:.) K C C J K D d t % t.J.A.G i d d d B V V S S ' _ ` ` _ ' ^ F K F F X.S.L.8.% =.:.:.-.F C K V K K F D V a B K ",
"C K ) >.>.) K C K K J K K K K d M % ,.0.0.J.A.n X.=.:.>.>.` ` ` ` ` ` ` _ >.>.-.=.-.X.J.S.o.u.8.O :.K C K C B ' C F F D C C C K ",
"K K K K K K K K K K A K K J A d s 6 ,.0.8.C.K.A.v G  .:.:.) >.>.>.>.-.-.-.=.:.X.X.X.J.G.K.9.$.9.@ K V K C F ^ V D K K D K K F F ",
". . . . . . . . . . . . . . . . . 6 ,.8.r.7.Z.G.G.          . .                   S.S.K.7.$.9.9.@   . . . . . . . . . . . . . . ",
"g.g.g.g.g.g.k.k.k.k.g.g.g.k.g.k.& 0 t.8.$.%.#.Z.G.G.8.0.M.M.<.0.0.0.q.q.q.q.0.0.G.K.G.$.$.$.9.7.i & ,.g.g.k.g.k.g.g.k.n.k.k.g.g.",
"k.g.g.k.k.k.k.g.k.b.b.k.g.g.g.g.# v 8.O.r.*.$.C.C.K.H.G.A.S.J.J.H.H.H.H.H.G.G.G.G.Z.B.u.%.9.$.8.d $ ,.g.g.b.b.g.b.k.g.g.k.k.k.k.",
"g.g.g.g.k.k.g.g.g.g.g.3.>._ ) ) # 0 t.u.o.$.%.9.Z.C.G.G.K.G.H.H.G.G.G.G.G.G.G.C.C.K.$.$.$.#.$.u.d $ p V h ^ >.) ) ) >.g.k.g.g.g.",
"_ ) ) ) _ ) ' ) K K K K V h B V % z u.o.8.$.$.#.Z.K.8.8.#.8.7.7.9.9.9.9.9.8.8.8.G.C.9.9.9.r.$.9.s & D V d B g g ) ) ) -.>.-._ -.",
"a a a a a a a y a a a y y a V D @ u 0.8.9.l #.K.$.$.8.9.7.9.9.$.8.8.8.8.%.$.$.$.$.#.G.9.O.r.9.8.i $  .d K K C ^ K V a y y y a h ",
"V V B B B B B B B B B V C K ) ) % x x 0.9 G.$.r.9.o.u.o.r.#.#.*.%.&.%.%.%.%.9.9.8.u.8.8.l 8.9.0.z $ ,.=.>.-.C V h h h h V V V V ",
"K K K A A A K K >.>.>.>.` ` >.:.% x u x H.8.u.O.8.r.#.9.$.$.u.o.$.%.%.%.%.%.9.9.8.7.$.9.K.9 9.l d & =.:.) -.>._ -.>.>.-.-.-._ _ ",
"K K K K K K A A K A K V >.` ` >.$ z u l S.e.1.e.i.$.%.%.#.9.$.8.8.r.#.$.8.8.$.9.r.e.$.r.r.A.l l s 1 V J K C K K F K F F :.>.J Z ",
"J J J J Z A K K A K K K V K A :.=.% l G.r.8.e.;.e.%.*.%.Z.B.J.J.B.Z.Z.K.H.G.0.7.O.e.r.O.8.K.9 u = J V J M K K C C F D V D J Z T ",
"J J J J J K K K J K K F J C K D G o 6 8.#.9.8.9.$.%.B.P.n H T F |. X|.n | G J.G.t.9.$.9.r.8.G.6 % D D K K C K C K C F F K K Z V ",
"    . . . . . . . . . . X . . .   @ <.u.7.#.9.#.P.P.@X|.+XH K #X&X&X X+XF L J P J.A.r.9.8.o.0.0.%   . .   . . . . . . . . . . . ",
"g.g.g.g.h.k.k.k.m.3.k.g.3.b.g./ O t.c.7.9.9.&.V.[.~.&X X X@X@X|.]..X X.X#X^ ) P L P S.w.8.9.7.7.0.& L D K ) g.k.m.3.g.k.g.g.k.k.",
"l.l.k.k.l.l.l.j.h.l.3.l.m.-.b.b.# ,.8.0.9.&.V.[.(.*X{.{.iXq ! uXpXjXjXq k OX~ / D  .G H.q.#.%.r.;.% X.P D L K >.g.K ^ 3.k.k.g.x.",
"h.h.h.h.h.h.l.l.l.h.5.b.3.j.b.+ 1.y.e.e.8.@.s.d.Y.^.(.<XsXyXrXtX7XpXuXuXfXMX!.F.H H H J.;.r.r.$.r.8.6 H F K J B B 1 2 V V C ) g.",
"B B V C K ^ ) _ 3.j.-._ =.=.+ y.1.y.;.i.i.@.T././.,X*X}.>XaX5XtXnX9XpXuXhX0XkXL.L.n +XL.;.O.e.O.8.8.0.@ :.=.B V C g a a a a y a ",
"a 2 y B h a h h h V d D d % v.,.;.r.8.1.@.{.(.,X,X! r ;X{ BXpXtXrXtXnXbXBX{ :Xw r hXkX%X: i.i.e.8.0.0.0.& P ) >.K K K C g a a a ",
") L K K D V d t t d & t % d t M.u.7.8.e., a./././.T.;XXX{ ;XVXpXaXaX7XNX:X} ;XoXBXBX9XhX|.: O.r.8.0.0.u V * K ) >.>.>.-._ _ _ ) ",
">.>.) ) ) ) K K K K L V d & & u s w.q.8.# ].*X,X,X,X<X;Xf.oXXXmXuXtXnXoXXX{ ;XNXnX8XlXhX|.@ u.8.0.u z & * V ) >.-._ _ _ -.>.>.>.",
"' >.>.>.>.-.) -.>.:.) :.:.) :.& = s u l w : d.}././.*X4XpXbXbXqXVXBX8XnXvXvX8X8X8XfXkX|.@ i u u z @ % h d a K >.K K K F C F K ) ",
"K ) ` ) ` ` ` >.) g._ K a h h a m = & z 9 r + ].*X*XyXyXtXaXuXhXr e qX8XtX7XtXpXhXwX$X# i z z 7 @ K D p d B A C C F F F C C K K ",
"a B B V K K K K K K B 2 y y 2 a 4 3 t $ 6 @ : ; .XxXuXaXaXuXjXhXMXwXmXhXpXjXpXfXlXOX+ & & O % G M M t V y K K F K F D F D V M M ",
"y 3 3 p y y y 2 3 4 2 a y p m M B B C K V K J K 1 + ; kXhXqXqXwXwXwXkXwX0XkXkX: ; ; 3.C L D M M = D p M K V K V V h d h d a p p ",
"M a M M a a B M V a V m Z K J J J C A K A Z Y I J M d + , ; : : + > , , , , + +.H h 1 a p 1 m m B D K a Z m 3 a y y y y t 1 p m ",
"K J Z J K K K Z J K Z K K Y J J J J C K K D U U U M $ f Q W ] p.k k ] N.W Q h @ s t 3 N m d K D v b F h V Z m 3 p p a d d a V K ",
". . . . . . . . . . . . . . . .     . . . . .     = s f W ).E.[ < Q [ N.).W d z O X       . . . MXVX. . . . . .     . . . . . . ",
"k.g.g.g.k.k.k.g.k.k.k.k.>.) ) K K J ^ _ _ ) ) n.$ M d k W.W.E.Q =X=XW Q.W.`.g s d O R J T D _ MXfXhXZX1.3.m.g.n.g.g.v.3.g.j.k.k.",
"k.k.k.k.k.k.g.>.) ) ) ) K K K B V C A _ _ 2.) & D d s k W.Q.p.< =X XW [ Q.E.g i i z $ J D F K j lXfXVX( y.g.3.g.k.g.3.3.3.g.k.g.",
"' _ _ ) ^ K F C K K ^ K a V F F K ) >.h.g.g.g.# t i i > p.[ E  X.X&X&XW [ p.g u l l # =.D K a j |.fXlXb ( C ^ K K K K ^ ^ ^ ' ) ",
"V V V h V V V V V V C K C ' -.-.L ) >.>.:.=.6 0.0.t.l f < E  X&XiXiX&X_.E Q y i 9.O.0.& L :.:./ |.kXzXf > y 2 a y a g V V B B S ",
"V h d h F K K K ) -.) -.>.g.>.:.:.:.>.K P P o 8.8.9.7.c ;  X&XgXaXaXcX~.'.5 f e.9.$.u.@ c. ./ H $XeX@X( F F ' V V V V V V Z Z Z ",
"K K K K K K K K ) >._ ) ) >._ :.L K K B d % t.8.8.9.r.+ @X XfXpXsXyXyX<X(.a., @.$.9.9.0.& =.-.j zXMX( +.-.>.C A g B g a B K Y K ",
"K D K D J ) >.:.>.-.) -.T K B a h V h V K # y.$.$.%.# |.&XgXjXuXtXyX*X,XY.(.(., &.9.8.q.O V j OXOXb j H F C K V F F F F F F F F ",
"C V K K J K C B a a p p = 1 1 & a 2 C a 1 3.i.r.*.#.:  XgXxX7XnXrXdX}.R.1X1XY.5 &.#.0.<.v.& #X#Xb f F h F F K F K F F F F D D D ",
"Y J J V a p 1 1 1 = = 1 - 3 a M h V a ^ # t.e.8.#.r.: fXgXgXhX8XjXyX*X2XR./.<X< e.7.8.q.w.% OXj y h V B F V K V C D C D D D G G ",
"Z Z J M p 1 = = 1 3 p M a V Z J C K K D % <.9.8.$.7 hXjX XjXqXhXuXpX6X6X,X/.*X-X@ 8.0.0.w.O v > a 2 3 a J C Y K K K K K F D D D ",
". . . . . . . . . . . . . . . . . .   @ x w.q.9.r.@ hXlX%X9XmXBX|.|.NXaXrX{.dXpX# 0.7.9.0.u 6   . . . . . . . . . . . . . . . . ",
">.) K K ) k.k.k.n.k.g.g.g.k.k.k.z.n.v.% x ..8.9.7.7 fXjXoXe qXVX+X@XVX8Xq  X5XjX@ q.r.$.q.x @ n.z.z.n.g.k.n.k.z.z.z.z.z.z.z.z.k.",
"F K K K >.g.>.) ) ) ^ ) K ) ) ) ` ) % i l q.8.t.8.# jXcXiXq VXVXf f VXBXe pXpXjX@ 0.o.e.9.9 d $ :.) ) :.) ) >.) -.>.` ) ' ^ K K ",
"V C K K ) >.) >.K K K K B B h h K * z i t.;.e.1.r.# >XxXiX].e VXc f VXc |.fXjXfX@ 8.e.&.9.9.z s O L K K L h h B B B V V V V B h ",
">.>.>.:.:.=.:.>.K C B B K K K / # z 8.t.$.9.&.i.: V.~.~.dXiX.Xe q e q  XfXfXjXjX|.# e.&.r.8.O.i d & s t a t 1 y 1 a m 1 B C F K ",
"C J C D J K K T M M K L K K =.# O.r.9.7.r.w O.@.; .X>XsXrXaXjX X X.X XuXlXfXfXhX@X+ &.e.0 r.r.r.;.v # s d p J K K V Z K K V C K ",
"K K K J K J Z K M a V V G & + 3.t.8.7.9.7.$.e.i.: !.xXaXaXaXuXlX0XlXfXfXfXlXjXfX|.: e.o.r.O.9.O.t.0.t.O & G M V K J K K V K K V ",
". . . . . . . . . . . + # 0.M.t.r.0 9.8.9.$.8.e.:  XuXrXrXtXjXhXmX0XhXfXfXfXuXjX+X+ o.r.9.8.9.9.w o.t.t.t.# 8     . . . . . . . ",
") _ _ ) ' K K K C ) O M.0.0.,.8.8.9.7.9.9 7.r.e.# |.jXaXtXaXpXuXeXlXMX!.L.hXhXlX|.0 8.$.r.9 9.8.9.$.r.o.t.0.,.& g.n.g.k.x.k._ ) ",
"k.k.g.>._ ^ K K F + v.,.,.q.q.z O.u.0.0.9.8.9.8.# +XjXmXrXtXuXlXkXL.L.F.L.hXuX9X+Xi e.$.$.9.7.9.$.9.9 r.0.t.<.v.1 :.m.k.g.k.k.m.",
"g.g.g.h.k.k.h.g.h.b.: & ,.t.z <.8.t.<.u q.0.q.8.c # 0XpXaXtXuXVXZXOX3XI.L.kXuXhX# i e.r.9.$.l 0.9.9.r.i ,.,.0 + ) :.,.g.m.k.g.g.",
"F F K _ g.l.k.k.b.3.3.b.+ @ i l 8.8.z z <.0.8.0.i # hXmX9XpXjX|.OX/ C U.L.L.qXhX+ D 8.$.9.u.i i 8.7.i i % # F L K K ^ V B V ^ K ",
"K F K K _ ) _ l.5.l.5.b.3.3.& # i z u i z z z u i # %XqXhXhX|.e f V B K I.F.hX|.& d i l l 0 i i z t % % 6 t p t C g g V V h V K ",
") V h h ) -._ h.l.2.5.5.3.b.3.3.# O & i z u u z z O $X|.qX0Xn j F K K V F.L.%X|.+ d v u 0 v s & $ & p d d a d B a B C K ' _ _ -.",
"V V C V K C ^ 2._ 2.2.-.-.-._ >.:.=. .= O 6 & $ & t i $X|.$Xf F K C K V ) F $Xc K = O % 6 # % J J J K K J Z Z Z V A A C C ^ ^ ^ ",
"t 1 2 d ) >.>.) _ >.) 2.C K ^ K K V V M s t = d s t v CXCXZXa B d M m Z ZXZXZXd J J D D D K D J J Z V V A Y K K K K K B a a a y ",
"B J K C K K K Z C >.K K ) K B C M M p 3 t p D D V J s D v f y m = 1 3 * C V a d M U J J J D J J J K Y Y J Z M m m m M m a y 4 2 ",
"C K K C J D J d M M p 1 p p M m Z Z M K K V K J K M t t t t 3 3 p p t p p a t t 3 J J J Z V V y a m M M m p p p p p p m m m M V ",
"Z K K J K J J M = m p 3 Z M N M Z Z Z Y K A A K Z m M p d a N I N J V M M m 1 3 N I Z Z Z N m B V M p p p s s p M M m M M M J J ",
". . . . .                       . . . . . . . . . .             .   .       . .     .   . . . . . . . .                         "
};
