/* XPM */
static char *_b9b18527ec94528b20456df3ea91a87JQFL3UL8hbKJp2VO[] = {
/* columns rows colors chars-per-pixel */
"64 64 232 2 ",
"   c #050000",
".  c #090100",
"X  c #0D0A00",
"o  c #120500",
"O  c #130C02",
"+  c #1B0D02",
"@  c #160C09",
"#  c #161301",
"$  c #1A1402",
"%  c #1D1A02",
"&  c #1D1A0B",
"*  c #18140B",
"=  c #1E1A12",
"-  c #1D1612",
";  c #221C02",
":  c #221D0B",
">  c #261509",
",  c #231C15",
"<  c #281F16",
"1  c #251F19",
"2  c #281F18",
"3  c #321B16",
"4  c #25220C",
"5  c #2A250A",
"6  c #2E290D",
"7  c #272105",
"8  c #32270F",
"9  c #252215",
"0  c #2A2215",
"q  c #2C2914",
"w  c #25221B",
"e  c #2B241C",
"r  c #2E291C",
"t  c #322D15",
"y  c #31271E",
"u  c #322B1D",
"i  c #3A2B1B",
"p  c #363215",
"a  c #34311B",
"s  c #3A351B",
"d  c #3D391D",
"f  c #3A3516",
"g  c #272420",
"h  c #2C2621",
"j  c #2E2923",
"k  c #2E2A29",
"l  c #312721",
"z  c #342B23",
"x  c #392E25",
"c  c #352E29",
"v  c #392F29",
"b  c #363125",
"n  c #3A3126",
"m  c #3D3A24",
"M  c #363129",
"N  c #3B332A",
"B  c #3E392B",
"V  c #3D3631",
"C  c #3F3932",
"Z  c #413D1D",
"A  c #42341B",
"S  c #40211E",
"D  c #462C27",
"F  c #423C23",
"G  c #41362C",
"H  c #433B2E",
"J  c #483729",
"K  c #503F2F",
"L  c #413631",
"P  c #453C33",
"I  c #493E35",
"U  c #493E34",
"Y  c #483F39",
"T  c #453C38",
"R  c #563B35",
"E  c #47431E",
"W  c #454224",
"Q  c #494424",
"!  c #44412C",
"~  c #4A452B",
"^  c #4D4B2B",
"/  c #4B4A27",
"(  c #514D2C",
")  c #564B2A",
"_  c #4F502E",
"`  c #55522C",
"'  c #59542D",
"]  c #59592D",
"[  c #464036",
"{  c #464135",
"}  c #494036",
"|  c #4E4135",
" . c #4A4135",
".. c #4D4B33",
"X. c #474139",
"o. c #4A4139",
"O. c #4D4239",
"+. c #4B423A",
"@. c #4E4A3B",
"#. c #524D33",
"$. c #51453B",
"%. c #564A3E",
"&. c #534B3D",
"*. c #5A4D3E",
"=. c #5A4B3D",
"-. c #544536",
";. c #4F5031",
":. c #555334",
">. c #5A5533",
",. c #5D5B33",
"<. c #55533B",
"1. c #59543C",
"2. c #5D5A3E",
"3. c #604E3A",
"4. c #615C35",
"5. c #635D3B",
"6. c #66583A",
"7. c #63522E",
"8. c #636036",
"9. c #6A653C",
"0. c #706F39",
"q. c #4D4842",
"w. c #554C43",
"e. c #594D41",
"r. c #5B4D40",
"t. c #5B4E42",
"y. c #5D4D41",
"u. c #594D44",
"i. c #554E49",
"p. c #5B4E48",
"a. c #504742",
"s. c #555145",
"d. c #5A5245",
"f. c #5D5B43",
"g. c #57514A",
"h. c #5C534A",
"j. c #5E5B4A",
"k. c #5B5352",
"l. c #6A4C49",
"z. c #615D43",
"x. c #625C4B",
"c. c #69574C",
"v. c #675E56",
"b. c #7A5755",
"n. c #725E46",
"m. c #666247",
"M. c #6D6B43",
"N. c #66624C",
"B. c #69654B",
"V. c #6E6B4C",
"C. c #6C6445",
"Z. c #716E43",
"A. c #726D4B",
"S. c #776748",
"D. c #757344",
"F. c #797546",
"G. c #7C7A46",
"H. c #75724B",
"J. c #79754C",
"K. c #7D7A4D",
"L. c #767849",
"P. c #666251",
"I. c #696453",
"U. c #6C6A53",
"Y. c #6B655B",
"T. c #726D55",
"R. c #716D5A",
"E. c #7B6B55",
"W. c #6F7051",
"Q. c #747252",
"!. c #7A7554",
"~. c #7E7A52",
"^. c #7C795A",
"/. c #73715C",
"(. c #7A6863",
"). c #7B7866",
"_. c #6F6A64",
"`. c #827E4E",
"'. c #817D53",
"]. c #887757",
"[. c #957C57",
"{. c #837E65",
"}. c #947E67",
"|. c #916969",
" X c #85824B",
".X c #89864F",
"XX c #858253",
"oX c #898555",
"OX c #8C8954",
"+X c #85815B",
"@X c #8B855A",
"#X c #8D895B",
"$X c #918B5C",
"%X c #898662",
"&X c #8E8B63",
"*X c #928E63",
"=X c #938268",
"-X c #949264",
";X c #94936E",
":X c #8B8774",
">X c #998B76",
",X c #999677",
"<X c #AB977A",
"1X c #B89873",
"2X c #A4A379",
"3X c #A6A575",
"4X c #C6A47C",
"5X c #CCA97F",
"6X c #9A9182",
"7X c #B59E88",
"8X c #AC9D86",
"9X c #AFAC86",
"0X c #BCA384",
"qX c #B8A68A",
"wX c #BDA990",
"eX c #C2A584",
"rX c #C5A883",
"tX c #C3AB8C",
"yX c #CAAD8B",
"uX c #CBAB83",
"iX c #D6B68D",
"pX c #CAB393",
"aX c #C9B497",
"sX c #D7BB98",
"dX c #C7AF8F",
"fX c #CABAA2",
"gX c #D1BDA5",
"hX c #D9C19D",
"jX c #E3C49D",
"kX c #DEC5A3",
"lX c #D8C6A7",
"zX c #EAD3AF",
/* pixels */
"t.t.t.t.t.t.t.t.%.+.U U U | %.%.t.*.*.*.*.=.=.*.*.*.*.*.*.*.*.=.u.t.t.*.t.t.*.=.=.t.t.*.-.| I I n H | t.t.t.U n I %.h.t.t.t.t.t.",
"%.%.t.t.t.t.t.t.| H n n n P t.h.t.*.=.=.=.=.*.t.*.t.t.t.t.*.*.*.t.u.%.%.=.t.*.*.*.*.=.| | U P N G H U =.t.t.U x n H | %.h.t.t.t.",
"h.t.%. .H N N N z z z n N N P U | U U | w.h.u.w.t.t.t.t.t.t.=.=.u.t.t.t.p.t.-.| | H | U +.n n n H O.&.w. .P N z x z z n P I +.w.",
"x x z u u u z z z z n N H P O.O.I I I I +.+.P N I U I U I I I I I I U H U U U U U  . .z x z G N H  . .+.I +.H n n z u x n u e u ",
"x z u u z n N N N N B P [ [ o.P o.+.P N z l z x z z z z x n n n n n N N N N N N N n N H N b n P L I I o.I +.P N r r z N N z y x ",
"N N N H  . .o.I  .P n x x b N n h z z z z z l l z z l z z z z z N P  . .I P N n n H N n N X.@.@.+.$.o.P N N x n N N n x z y z N ",
"x N P o.+.P N z n n v n n n n h z r 2 2 h z v n P o.o.o.o.o.o.o.P  . .I I o.+.o.o.I  .[ X.[ [ P o.P n x x N x x x n n x x x x n ",
"n n n n n n n n n n v n n M v h r z n N n x c n n N P P P P  .o.o.o. . . .o. .I I  .o.b n b N M x n n N x n x N x N n x n n n n ",
". . . . . . . . . . . . .   .               .       b @.a.# .     . . . . . . . . . . . .       .   . .       .   .         . . ",
"u.u.u.u.u.u.u.u.u.u.w.u.&.w.d.d.d.a.@.a.s.s.j.)./.U.d.P.P.P.d.w.d.&.h.u.u.u.u.h.u.u.p.w.P n N P u.w.u.a.w.h.u.w.a.w.u.u.u.u.w.a.",
"u.u.u.u.p.p.u.u.p.u.u.a.d.&.d.&.&.! &.U.R.R.j.d.I.I.U.P.U.N.I.x.&.u.w.d.u.%.u.w.p.u.u.u.+.N x N y x I w.u.a.a.g.g.u.w.w.u.u.u.u.",
"u.u.w.u.u.u.u.w.w.u.w.d.U H U { U.z.j.1.&.U.U././.U.U.U.m.U.B.N.x.s.w.&.w.h.u.h.u.u.u.u.%.P G N e y z r x P I P I P o.a.u.w.a.w.",
"I P P P I P P L G N N q n u ..1.f.Q.N.F s ~ ..V.B.B.B.:.1.z.B.T.x.x.P O.w.&.w.w.t.u.u.t.u.h.t.&.N z y z z z r z P L L I o. .I o.",
"e e e e e e e 0 < 0 0 q u H d.z.z.2...m ..f.2.m.2.5.Z t Q ~ d ~ x.x.h.b  .H | P I I I I %.t.t.| P  .P x z N N x N z r w w w r z ",
"z z z z z z z z u N u u R.x.! a #.~ ~ p 5 6 Q Q #.2.d 7 W t :.z.d.{.j.@.r N n N N I $.$.| U U U +.P I o.O.o.N x u u u z z z z z ",
"n n n M M M n n  .H N.R.f.<.1.q :.:.#.t 5 7 5 O t #.5 6 6 t z.#.1.).{.P.&.0 e z N N G P I  .|  .I o.+.P P o.I P  .o.+. .I  .I I ",
"b n n M M M M N m U.2.W 5 % q % <.! s f...<.&.m O $ # : X # H ~ z.z.f.F { u.z e e w c N N +.z N n x n n n b n n n N n n o.o.n x ",
"b n n M N N M n f.<./ _ 2.;.4 X # # # $ q N.d.j.! X n #   q $ # t 7 5 s f.T.j.9 w h j h z N N z n x b n n n M b M n M x n n x L ",
"n n M M N n x b f.f W >.B.Q.m d ~ :.a : O 9 N s.a.. & : # 4 t t d p C.+X9X9X;XV.m 9 h h h c n n x n n n n x b b n x n n N N x z ",
"  .     .   . X #.f W :.m.Q.Q ~ m.......q #   O & * # : u ! 2.B.5.Z !.'.#X3X3X2XQ.m .   .   .     .         . .     . .   . . . ",
"%.w.u.u.u.u.d.x.! F d ` !.^.( ~ m m <.{ : O O & O # O # t Q ~ W Z 4.K.`.#X-X3X3X2X!.B.H w.g.u.i.i.a.P n N I @.w.g.a.u.u.w.w.w.u.",
"t.t.u.u.u.a.d.x.s d W ,.V.!.Q.^ q n ! % X $ % a ! $ 1.q $ :.m.C.H.~.Z.D.F.XX-XoX-X,X{.N.{ P P u.u.u.o.n x n B P a.N G a.u.u.w.u.",
"w.w.u.u.u.w.h.N.s f W ( >.C.^.d m @.q # 7 ; s ( Q.Q +XA.p 7 #.^.M.D.M.Z.K.'.'.*X@X&X+X{.z.x. . . .w.a.P G n z x u , < z z x H w.",
"y u z n N N H &.a s p d >.5.Q.2.: & $ % W / ' K.'.D.'.*X%XZ ; ^ H.M.M.M.J.+X~.'.+X'.~.~.^.B.N.H H +.I P o.I x r x r e w e e 0 e ",
"e 0 e u y z e m s t f p W 1.z.F % a F 5 ( H.F.G.`. XoX#X$XXX` % ( V.M.H.H.~.'.'.H.J.~.'.+X%X~.V.F H N N N N @.P n N N x u e e e ",
"I H N n u u e m t a t p d W t 7 ( 2.:.( Z.J.F.0.G. XOXOXOXoXD.' ; W A.M.J.F.J.J.F.H.J.+X&X-X-X&XU.I.z z n N z o.o.o.o.o. . .P P ",
"I P P +.+. .n n H a t t t 5 $ W 5.H.H.H.K.Z.F.F.G. XOX.X X.X.XK.( % f M.H.D.K.0.D.D.K.XX#X#X&X;X,X).j.u z n P  .o.Y P I o.o.@.@.",
"I +.+.I P P I @.j.u a u q 7 : ^ ,.9.J.J.K.K.K.K.XXoXOX X X X XG.H.( $ 6 5.H.D.D.F.F.K.XX@X#X%X%X:X>X:XP.{ r x I n n n n x n N H ",
"n L o.o.o. . .[ P Y.9 r b # 0 f ` 4.9.J.'.XX'.`.oXoXoXoXOXOX XG.'.~.W # % F Q.^.L.K.K.L.~.+X{.^.R.).U.P.@.z n n v v M M x x n N ",
"h z h z N N N M B M a.9 r $ & m E ' 4.J.~.J.'.XXXXoXoXOX$X$XOXOX#X@XA.s . X s z.W.Q.Q.Q.^.Q.<.a % X # q m @.H z N n M n n x z u ",
"2 e w 1 e , e w 1 h w P z & & a d ) ' 9.Z.F.F.K.XXOXOX$X$X$X#X$X#X+X!.B.u X   * = M q.s.H 4 X   # $ u { @.x.z N z h r z h e 9 9 ",
"h z r r z e z h h h z C N & & a f Q >.' 4.J.0.K.`.OX$X$X*X$X#X#X*X+X~.!.s.# X   .     .     O : t a ! u 0 z a.0 w w w w w , 9 e ",
"n M x M n N n x n N M z P.9 & b s Z Q ,.` >.J.Z.XX@X@X@X#X@XoX#X#X+X!.V.B.0 .     .     X # q A 6.>XfX-.$ w a.e e w e j h r z n ",
"  . .               .     P w b a W Z ( :.>.4.~.+X'.XXoX`.oX$X#X#X'.Q.Q.N.9 .         # 0 F E.qXlXgXqX-.> , .                   ",
"w.w.w.w.w.u.u.w.u.d.d.a.o.[ h.r m f d d ( 5.` 8.J.XXoXK.K.oX#X#XK.H.^.U.{         O , s n.qXlXaXwXfXE.o + _.a.h.w.i.i.u.u.u.u.u.",
"u.u.u.u.u.u.w.+. .N P o.x n N @.u s d ~ Z ^ 4.` 8.'.@XK.`.XXXXXX'.H.A.#.X .   * 9 u N.qXlXpXeXpXgXaXi + x u.a.w.i.s.u.a.a.w.u.w.",
"P I I P G N x x N N G z z z N d.m u m d W d ` 8.,.9.J.XXK.K.'.J.J.J.T.4 . X O e *.8XlX0X0XsXsXpX7X=.+ > u.N L N N N N N N N L P ",
"z z z u z z z z e x N N N  .P [ j.a b s m W ` ` ,.] 8.J.'.K.J.~.H.H.>.o + i -.>XgXwXdXhXhXpXtX7XK O o G u w 2 9 w e r z z u z z ",
"z z y z x N N N +.o.P P P @.@.P [ P.u m m W W _ ] ,.] 8.H.K.J.'.'.C.$ J >X}.tX0XyXyXkXkXsXqXE.> o > %.P N N N x z z z u z z z z ",
"N N N N N N N N  .P o.o. .@.P o.N N s.q m W W ^ ' ,.,.' ,.J.'.J.H.6.6.aXkX0X1XyXuXrXyXtX}.A o O y Y.+.I o.o.x x r u e e u n N N ",
"N M N M n P o.X.o.X.P X.C N h e z z z B m ! ~ ^ :.:.,.>.4.,.A.'.6.].hXrX1XrX4X4XeXeX<X3.> . * i.a.o.N x n N n n n n n n n n n N ",
"x z n n M N x z e e w w = = = = e w r @.B ! ..:.>.^ ,.5.8.5.9.7.[.jXrX1X4XuXrXyXtX].8 o . j k.k z v N v v v v n n n n n n x v c ",
"V N M z e w , , = = = , - 2 e h h z N z x.! ! <.#.:.^ >.4.5.) ].zXuX4XuXiXjXkXaX*.+ + @ a.j w 1 r h h z v n n x x n n n n n N N ",
"c c N z w , = = , 2 w h e z c v V x x N z h.m @...z.:.:.4.' C.kXjXiX5XjXsXpX=X8 . X e k.h j z e r w 1 e c N n x n n n n n n M M ",
". . .     .           .   . .   . . X       @.B ....:.#.6.' qXtXiXsXsXyX<XK O O O P @                   . .                     ",
"o.P N n P u.u.w.g.u.a.u.a.u.u.u.u.h.u.u.s.s.@.&.&...1.>.) C.lX7.[.sX0Xn.> + O h _.g.q.s.g.u.u.g.u.d.g.g.i.a.a.u.u.u.u.u.i.i.i.i.",
"n n n N o.a.o.[ P P H L G P P I P I I @.P  .P s.B { <.5.) <XzXS.A S.3 + o @ q.+.g.+.s.s.{ P $.P  .[ P P +.o.o.+.o.o.X.P P C V V ",
"z x n N P o.P o.V N n n z z z z G n n n n N n N h.H -.=.6.fXlX].; + + o z k.z c z z u u n N n N N N N N N x z z z z z z z z j j ",
"o.+.o.o.o.[ X.+.N z z c N C C N n N N N N P  .b N h.N %.d.6X&.$ O < O h.o.n x z z b r z u x z z z z h e e 2 2 e w e e e h c N V ",
"c M x b n N V C z c N N M M T q.o.o.o.I P o.@.N N C w.L w , X - , , e Y.+.$.I c.$.I G N N z j h h h h h z z z M c M N N N N n c ",
"n n n b n M v n r r z b N N N N N v n c N T Y Y @.L a.Y e @ - j Y.w.v.v l.l.l.b.b.l.D D v n M M M n M M M x x n N n x x x v n n ",
"    . . .               .           .   . X   .   .   N h e q.@   .   G 3 S b.|.|.b.J o .   .                   .     . . .     ",
"P I I P P N n N N n x H &.u.u.u.u.w.u.w.w.u.a.u.u.d.w.a.h.+.P n N z +.R (.c.D R R D D $.c.g.w.u.u.u.w.w.w.w.u.d.u.w.w.u.w.$.o.I ",
"u.u.a.O.I G N N n N n n n n N P t.%.t.w.w.w.w.t.u.w.w.d.w.N P z z x y x D R R 3 i > 3 J c.w.u.w.w.w.@.o.o.o.+.@.w.u.u.u.u.u.u.u.",
"t.t.w.u.u.u.w.t.t.$.G x G G n G i G { %.%.t.h.t.w.$.U | U |  .H G N x y x z H I.x.R.v.u.I $.$.I o. .P P P  . .+.P +.&.w.w.u.u.w.",
"x n G U w.u.t.t.%.h.t.*.*.| n n n n n N n G $.|  .U U U |  . .O.I I G N n b u r r u u B G n x N N N N N H N N N N G N z z x N N ",
"N x G N I P U u.t.t.t.t.t.t.t.t.&.N n N z l z z z z N Y P P o.o. .[ n b b r r e e 0 9 9 9 w 9 9 w w 0 < < < 0 w x y y z z z z N ",
"U z y u U o.I w.t.t.t.w.u.w.t.u.h.$.+.Y N z c l z c e e N N c n M M b b N n n x x z u z z j r r r r y z z u y r r z x N L P I o.",
"z z x z N x N O.o.o.+. .I  . . .I P o.P n x z w 1 2 e r h M N c b M M M n n x x N x x v M M b b M M M M M M M n z M n x n N L N ",
"0 , 1 y I @.o.P P P Y P L N N n N x x r 1 9 r w w e x n z z z h h r h r r l e z v v N v n n M N N N n M M M M M N N n z e r r w ",
"z n N x n M N M L L C N n x x z x r e 0 9 e z z b b r e h 9 , w , , 1 , , w 2 h z c N N n c c N c M M M M c j h h h h h e w w 1 ",
"x N N z M b N h h h e w e e j h z r z b M N N N M h w w e w 9 e w w e 1 1 2 , w w k N N c z l h j h h h h h e w w 2 w e h h h z ",
"c M M M N M N j w w w w e j j j V M c c c M M M M h j c g g j h c M c k j w w w w j M c k j j h h g w w w w w w k j h j j k M M ",
"                                                                                                                                "
};
