/* XPM */
static char *_1a4a1f0e6ac46c1fa3f1230be3d6d3bGlSqf5CV9kXzv8QJ[] = {
/* columns rows colors chars-per-pixel */
"64 64 256 2 ",
"   c #040200",
".  c #0A0201",
"X  c #070B05",
"o  c #140A06",
"O  c #191407",
"+  c #0D1410",
"@  c #241809",
"#  c #3A1906",
"$  c #271B17",
"%  c #361D16",
"&  c #250D04",
"*  c #2B251B",
"=  c #32241B",
"-  c #332A1D",
";  c #3B2518",
":  c #35270F",
">  c #062C2A",
",  c #1B2A28",
"<  c #07322D",
"1  c #083634",
"2  c #1A3B38",
"3  c #002D30",
"4  c #2C2B24",
"5  c #272927",
"6  c #342C23",
"7  c #3A2D24",
"8  c #352D2A",
"9  c #372927",
"0  c #2A332B",
"q  c #3A3225",
"w  c #35332C",
"e  c #3B332B",
"r  c #373427",
"t  c #293836",
"y  c #373834",
"u  c #3B2E31",
"i  c #15221D",
"p  c #471C07",
"a  c #4E1D0F",
"s  c #661B02",
"d  c #741E00",
"f  c #46240B",
"g  c #572609",
"h  c #482718",
"j  c #592914",
"k  c #593118",
"l  c #6D2300",
"z  c #672A07",
"x  c #742402",
"c  c #7A2501",
"v  c #7C2B03",
"b  c #7B2E0A",
"n  c #752905",
"m  c #7D340D",
"M  c #672C16",
"N  c #6A3618",
"B  c #783817",
"V  c #6F300D",
"C  c #443A2D",
"Z  c #46362A",
"A  c #563829",
"S  c #453B32",
"D  c #4A3D34",
"F  c #483D39",
"G  c #533C34",
"H  c #563E36",
"J  c #492E24",
"K  c #683925",
"L  c #18413B",
"P  c #39443B",
"I  c #27443D",
"U  c #4C4235",
"Y  c #4D423B",
"T  c #474539",
"R  c #554C3D",
"E  c #5A4C3D",
"W  c #574439",
"Q  c #58513D",
"!  c #494532",
"~  c #7A4425",
"^  c #684533",
"/  c #78421E",
"(  c #1A514C",
")  c #284945",
"_  c #3A4845",
"`  c #305753",
"'  c #3B6869",
"]  c #36605C",
"[  c #494A46",
"{  c #554C43",
"}  c #5B4D43",
"|  c #564D4A",
" . c #4A544C",
".. c #575247",
"X. c #475957",
"o. c #545A56",
"O. c #664F45",
"+. c #4F6358",
"@. c #766456",
"#. c #486764",
"$. c #566C69",
"%. c #587977",
"&. c #507572",
"*. c #677A7A",
"=. c #696E6F",
"-. c #4D5D62",
";. c #1A3D41",
":. c #832601",
">. c #842B03",
",. c #882B03",
"<. c #8B330C",
"1. c #85330B",
"2. c #96360C",
"3. c #893915",
"4. c #953C18",
"5. c #913C23",
"6. c #A03E17",
"7. c #88421B",
"8. c #9B431C",
"9. c #95421B",
"0. c #A3451C",
"q. c #864729",
"w. c #9D4923",
"e. c #994826",
"r. c #884A35",
"t. c #895639",
"y. c #995839",
"u. c #8D4C2F",
"i. c #A34B25",
"p. c #A34D29",
"a. c #A64824",
"s. c #AB532D",
"d. c #A5522A",
"f. c #B5572B",
"g. c #A95A37",
"h. c #B25B34",
"j. c #B35E3A",
"k. c #B95D36",
"l. c #A94E2C",
"z. c #AD653C",
"x. c #B4623C",
"c. c #BC643C",
"v. c #B96539",
"b. c #C3653C",
"n. c #CA6A3E",
"m. c #C3673A",
"M. c #D66C3F",
"N. c #C25E33",
"B. c #9B5C43",
"V. c #8B5C4B",
"C. c #AA5D41",
"Z. c #92644A",
"A. c #A86648",
"S. c #B56642",
"D. c #BB6642",
"F. c #BC6A44",
"G. c #BC6C4A",
"H. c #B56A48",
"J. c #BB724B",
"K. c #AA6952",
"L. c #BA6C53",
"P. c #B87555",
"I. c #AD7350",
"U. c #827A73",
"Y. c #B27A64",
"T. c #C36642",
"R. c #C36B44",
"E. c #CB6D43",
"W. c #C36D4A",
"Q. c #CB6E4B",
"!. c #CB6743",
"~. c #D16C44",
"^. c #D46E49",
"/. c #CD7245",
"(. c #C5724C",
"). c #CB734C",
"_. c #C97448",
"`. c #D3744B",
"'. c #DA7A4D",
"]. c #D5764A",
"[. c #CB7452",
"{. c #C87655",
"}. c #D57C54",
"|. c #DB7D53",
" X c #D47A56",
".X c #E27E55",
"XX c #E37C4F",
"oX c #C77F65",
"OX c #67817B",
"+X c #75887C",
"@X c #5C8277",
"#X c #B58D73",
"$X c #838379",
"%X c #D5825C",
"&X c #DB835B",
"*X c #DB8356",
"=X c #E38155",
"-X c #E3845B",
";X c #E9885D",
":X c #CA8465",
">X c #D88664",
",X c #D99179",
"<X c #E38B65",
"1X c #E6926D",
"2X c #697F82",
"3X c #4B7E81",
"4X c #4B8987",
"5X c #528B8B",
"6X c #578889",
"7X c #4B9699",
"8X c #589899",
"9X c #578D90",
"0X c #6A8885",
"qX c #738786",
"wX c #66989A",
"eX c #779899",
"rX c #6D908F",
"tX c #5BA29D",
"yX c #76A29E",
"uX c #67A099",
"iX c #599CA4",
"pX c #4C9BA5",
"aX c #679CA4",
"sX c #7399A1",
"dX c #58A3A7",
"fX c #54ACB1",
"gX c #67A5A7",
"hX c #76A9A9",
"jX c #69ABB5",
"kX c #69B6B7",
"lX c #76B9B8",
"zX c #73B0AE",
"xX c #73C3BF",
"cX c #5FC2BF",
"vX c #74BDC5",
"bX c #64BBC4",
"nX c #6AC6C8",
"mX c #78C6C6",
"MX c #7BD4D4",
"NX c #77CDD1",
"BX c #7EE3DF",
"VX c #88ADAD",
"CX c #8AB7B7",
"ZX c #859C97",
"AX c #85C0BC",
"SX c #86BDC4",
"DX c #86C6C7",
"FX c #94C9C8",
"GX c #85CCD2",
"HX c #86D4D8",
"JX c #95D4D7",
"KX c #98D1CD",
"LX c #A3D9D6",
"PX c #8FDBE2",
"IX c #8FE4E6",
"UX c #98DFE1",
/* pixels */
"..{ } E E E } } { Y S F F U E R R Q E } E } { { { } } } R { R E E E } E } } } { ..{ } E } S ! ! r C U R E E F Z F { | } } R R Q ",
"R { } } E E E } U S q q e S E } R R E E } } } { O.R E } R ..Q R E E W E } } { } { } } S G D S r e C U R } } D 7 e S Y { } ..R Q ",
"..} R U C e q q - 6 6 e e Z F F U F G H } } } R E } } E E Q R E E Q } E E R R U U S D D Y e q q C Y R R D D e 6 r 6 6 q S F Y } ",
"7 7 7 6 6 6 6 6 - 6 7 C S S Y Y F U Y G Y D C Z D D D D D S C U C ! ! U C U D Z D U D 7 7 6 e C C U D Y F Y C q q - - 6 q 4 9 9 ",
"7 6 - 6 7 e e e e e C F F F Y S T T S e - - - q - - 7 6 = e S 7 C r r r q q q Z Z q Z Z C q e S e T F Y F Y S e * * - q e 9 9 u ",
"Z e Z S F Y Y F F F e 7 7 7 e r * 4 = 6 4 6 4 4 4 6 y y P t 5 y y P _ P P T e e e C e 7 e U Y Y U T Y F e e 8 q q q q 7 6 4 9 u ",
"7 q C U Y F u 9 u u 8 e e r q - 6 * $ $ 4 8 w y [ X.#.` ( ( ( ( ( ( ( ` ) #._ [ [ Y F Y Y F S F U C q 7 8 u 8 8 7 7 q 7 7 7 8 e ",
"q q q q e e u e w w 8 e w 7 7 = 4 6 w y y t t t ` ;.6XJXGXmXJXDXGXlXJXDXFX4X) 2 _ X.[ y 0 w e 8 7 q q e 8 e 8 u 8 e e r e e q q ",
". . .               . . .       X X X + ` ' wXFXSXGXGXlXlXgX9XsX9XaXgXlXmXGXDXDXDX9X` ] X.i X     . . . . .   .                 ",
"R R { { [ [ [ { ....} { | o.o.$.&.#.' eXLXDXgXaXiX8XwXzXDXhXeXeXeXrXCXJXdX7XdXiX7XlXDXFX%.#.$.=.=.o.[ { ..{ ..{ | ..[ ....{ { Q ",
"} } { | | ..{ R W E R .. .$.&.&.4XlXDXDXDXlXgX9XsXeXrXrXOXX. .[ [ X.#.OXeXwX9XwXaXzXlXDXSXCXhX6X&.#.$. ...{ { E { } [ ..} R } E ",
"} } { { | | { R Q R Q o.#.rXJXDXkXtX9X8XzXVXCXrXt y y y * - h ; ; = - = w P _ ` VXVXCXwXgX8XgXlXDXFX&.#.P y R D S Y F R } { } } ",
"D F F F F F S C e r  .$.rXDXjXmXlX8XyXeXqXt  .Y - ; h h j k j g N M M j a p % - {  ._ eXeXwXgXkXmXlXCXrXOX .5 * D Y D G D S F S ",
"4 = = = = = * * i _ %.VXaXgX8XdXzXCX_ 0 e 7 h h k M M q.K.A.y.A.g.y.H.g.b V M j h ; ; e , #.LXhX8X7X8XhXyX0X_ y 8 = % % % = - 6 ",
"8 6 6 - - - 4 5 ] rXhXaXaX9XhXeXqX[ S h h K g ~ y.g.1.w.>X(.x.H.z.z.S.s.>.x.F.g.3.M j h % e [ qXwXhXwXgXgXgXyX) [ 6 6 ; - 6 * 6 ",
"w w q q 7 q 0 t &.LXJXjXwXsXqX .* J a j M K.H.H.x.}.8.8.*XR.R.F.J.J.F.h.:.].*X`.x.G.C.s K A h $ =.eXsXwXDXJXJX3 &._ F Y G U S T ",
"8 e q 7 Z w t VXzXaXaXSXCXqX$ ; k N P.{.{.G.(.F.F.).w.9.*X/.c.D.S.S.F.j.:.E.-X!.).[.W.(.L.B.z j : P 0XFXlX8XdXDX&.` w 7 H D 7 e ",
"w w 7 e w P ) VXvXjX8XsX$.$ h M V l }.&XQ.T.W.R.W.[.8.9.*XE.b.T.W.S.D.h.,.`.=Xm.E.E.R.(.(.g.l V f 7 5 OXaXiX7XHX4X] _ 8 e e e 6 ",
"w w 6 0 0 ) KXgX7XjXwXrX$.& a B.A.v '.'.E.~.E.b.).).0.0.XXM.n.!.).F.c.f.,.`..XN.m.n.).).R.s.4.>Xu.p % =.eXgXiXdXvXwX> t 8 r r r ",
"        ) ' DXkXkXiXsXt o k q.C.S.c '.XXn.~.!.!.`.E.8.0.XXM.~.~.).R.T.f.:.`.=XN.n.!.`.).b.i.1.1Xl.5.j $ -.sXjXkXvXgX) I         ",
"Q { {  .] JXiXDXGXSX2Xy # M K.H.g.c }.|.T.!.!.Q.Q.R.8.i..X~.~.[.[.W.F.h.:.`.-Xb.R.R.Q.).(.s.1.1X[.y.M # [ eXFXDXvXgXFX`  .| R O.",
"E R | _ &.GXiXiXaX6X+ 7 K r.A.G.z.b ].`.T.Q.Q.).W.R.8.i..XE.Q.[.[.W.R.h.>.`.-Xc.T.R.W.W.R.i.>.<X{.g.~ h @ t rXwXtXzXKX` o.| { } ",
"E O.| _ ' DXjX8XwXqX@ h K A.P.S.g.c '.].c.R.E.).R.c.8.0.=Xn.!.).).R.R.h.:.`.-Xk.b.b.T.E.).f.2.;XE.S.A.K @ 0 0XuX8XzXUX( X.y e ..",
"; - o.%.iXvX7XgX3XP h j q.g.J.J.z.x '.].k.R.R.E.c.c.4.0.=Xn.E.).R.R.E.f.:.`.-Xb.T.b.b.E.^.s.2.=X/.S.A.N f q X.9XgX7XmX4X&.t * * ",
"* * , hXNXbXkXzX@XX j u.C.G.x.F.h.v '.].m.b.R.R.c.v.8.0.=X~.`.R.T.E.!.k.,.`.&Xv.b.b.b.`.E.f.2.=Xn.c.z.t.K % + sXkXkXnXPX%., 5 * ",
"F y 2 zXNXnXmXzX$.@ g L.%Xx.W.F.x.x *X].c.c.c.W.F.F.8.8.=X/.E.W.D.E.E.k.:.`.-Xv.E.c.b.).).f.,.;Xn.c.H.H.r.h o eXSXbXbXHX5Xt [ F ",
"Y [ 2 zXkX7X8XrXo.& l (.}.x.H.G.z.v |.].R.F.j.F.(.D.9.8.-X].).D.F.W.W.x.<.(.&XD.F.x.S.W.(.s.2.-X].v.x.S.q.a & qXwXiXpXHX5Xt [ F ",
"F [ 2 lXDX8XwXrX@.g l 4.4.9.1.7.1.c 4.4.<.4.3.4.<.3.<.<.6.<.8.4.3.3.3.>.c 3.8.3.3.3.3.9.3.v >.4.<.9.9.1.3.z h U.rXgXiXJX5X2 P F ",
"y _ 1 gXlXdXwX .V.,X}.|.;X-X X>X X&X=X;X&X>X<X&X>X&X X|.;X|.-X X&X%X*X&X;X*X*X}.}.&X%X%X&X&X<X&X%X%X&X%X<X>XY.E %.9X8XDX5X2 _ y ",
"* 0 1 lXDXGXFXo.V.:XW.E.E.`.1XW.).R.E.n.T.F. X XR.[.R.R.~.m.R.(.>X[.W.R.c.b.).E.E.}.>X(.c.c.v.(.G.{.&X).R.G.P.A +XCXmXUX9X2 y * ",
"* 5 < lXlXgXyX .V.oXJ.z.v.k.S.J.x.j.c.c.S.S.L.G.x.G.D.D.c.v.x.G.G.H.S.G.x.v.v.h.D.S.F.x.S.(.x.S.J.x.v.b.v.S.A.A $.gXdXHX3X2 5 * ",
"9 0 < lXmX8XwXOX@.j V m v <.3.3.b 3.>.>.1.m m m 3.m b 1.>.>.1.b m 1.b m 3.v 1.3.1.1.1.3.b m 1.b b 3.>.<.m V K U.0XiXpXGX8Xt 4 * ",
"w t 1 gXmXiXwXeXo.& g m <.c x n 3.s >.,.c v n m n 1.x x <.c 1.n v b 1.b d 1.>.c c c x v b b c <.:.1.c x V p o ZXwXgXpXHX5X) 0 e ",
"  X 1 lXvXdXlXhX$.O g J.&Xj.G.L.g.m `.]./._.x.x.S.F.e.i.|.`.E.v.F.x.F.x.3.W.%Xv.D.F.F.S.H.d.8.|.E.E.(.H.r.f . eXgXkXkXPX5X< +   ",
".._ 1 lXHXMXJXFX0Xo j G.{.G.H.A.A.x *X'./.).v.F.x.(.e.i..X`.E.E.R.c.(.S.c ).<Xx.W.D.W.F.G.p.<.;X`.b.).G.~ # O VXJXGXNXIX5XL o.| ",
"R  .3 gXmXdXiXwX#.O k H.:XH.A.I.A.b }./.m.R.R.F.S.W.8.8..X`.R.E.b.R.(.S.>.).&Xk.R.j.W.D.S.d.2.;X'.n.E.J.t.h o *.8X7XfXMX4X2  .| ",
"D P > zXxXdXaXsX$.O k I.:Xt.V.V.u.b |.].R.E.).F.F.R.4.a..X].E.).b.E.(.x.,.`.-Xc.c.F.).G.D.d.2.;X].`.E.G.q.p . 2XaXiXdXHX9X2 P y ",
"- 0 < lXlX7XwXwX#.O f P.I.N #XV.B x &X|.T.Q.E.W.F.F.6.a.XXE.!.).!.E.(.h.:.`.<Xk.c.).Q.D.F.w.<.;X].`.T.(.y.f o qXwXiXpXGX5X2 w 6 ",
"7 0 3 kXMXnXmXAX%.$ j A.P.t.Z.O.r.x }.].c.R.W.).W.W.4.a..X~.b.R./.).).k.:.].;Xk.b.).Q.D.F.p.2.;X`.~.E.{.u.f O eXmXnXnXIX5X2 y 7 ",
"C t 1 kXnXcXmXlXOXo g P.:XI.K V.A.b  X`.b.x.(.W.W.(.4.a..XE.c.E.`.`.R.h.,.].-Xm.m.R. XR.x.p.2.;XXX^.).G.q.f O eXlXkXnXPX5X2 T 7 ",
"q y 3 jXmXdXaXsXo.$ g {.{.A.~ t.K.n }.}.D.W.F.F.(.(.4.0.=X~.b.R.)./.R.h.,.^.=Xm.b.E.).R.D.p.2.;X^.~.Q.G.u.h o 2XwX8XfXGX5X2 w e ",
"6 P 1 kXmXpXaXsX=.& M H.>XL.M t.B.l %X|.x.F.D.F.(.).4.0.=XE.b.R././.E.h.,.`.=Xm.n.!.Q.R.D.p.2.;X^.~.Q.G.q.f o 0XwXiXpXHX9X2 y 7 ",
"e 0 1 kXcXpX7XwX#.@ j {.:XI.N V.A.n }. Xx.G.W.F.(.).8.0.=XE.D.R.Q.).E.h.,.`.=Xm.!.E.Q.W.F.p.2.;X~.b.W.H.~ f X 0XtXfXpXNX5X2 4 e ",
"y t 3 kXBXMXHXFX0X@ g H.:XA./ V.B.n }.`.D.W.W.F.(.).8.0.=X/.F.F.).).E.h.:.`.-Xm.E.E.).Q.W.p.2.;X^.E.[.P.q.f O VXFXMXnXIX4X2 y 7 ",
"  X 1 lXmXfXgXhXX.@ j I.I.~ #XV.B l }.`.D.F.D.F.W.).8.0.=XE.F.F.).`.W.h.:.].;Xm.E.E.).).W.p.2.;X~.b.W.L.t.h o qXgXgXfXNX5XL     ",
"Y _ 1 jXkX7XwXwX$.X g P.A.N #XV.B x &X|.T.F.x.S.F.(.8.0..XE.F.F.W.Q.W.h.:.`.;Xm.E.E.).).W.p.2.;XE.E.[.H.~ p o qXwXdXpXHX4X2  ...",
"w t 1 jXnXdX8XwXX.o j P.:XH.r.y.y.n }.|.T.F.D.D.F.).8.0..XE.R.F.R.R.D.h.:.).-Xm.E.R.Q.).W.p.2.;Xn.c.G.H.q.h O qXwXdXdXHX9X2 w e ",
"4 P 1 lXmXdXgXhX$.$ g G.{.G.A.H.A.c ).}.x.x.F.c.W.).8.0..X~.R.F.D.F.D.h.,.`.;Xn./.b.E.W.W.i.2.;X`.b.F.H.r.f X 0XgXdXkXHX4X2 0 6 ",
"P X.> zXHXNXGXDX%.O g J.-X!.x.J.g.c ].*Xc.S.F.F.F.).8.0.=Xm.F.F.F.F.D.h.,.].;XE.R.c.E.E.E.s.2.-X^.b.W.H.~ # O ZXDXHXnXPX5X2 P e ",
"t _ 2 zXlXiXiX9X+.O M G.}.b.S.G.j.>.)./.c.J.x.D.F.).8.0.|.n.c.F.S.W.D.h.d `.;XE.R.R.W.F.W.s.2..X|.b.x.S.u.f . OXwX7X7XHX5X2 y 6 ",
"e y < zXlX8XwXeX@.p z p.k.i.p.e.e.d s.v.w.d.p.w.g.i.<.2.f.s.d.w.e.e.w.i.c s.k.s.h.w.w.g.d.4.<.c.p.p.p.e.B g # $XrXaX7XPX5X2 y u ",
". + < lXlX7XyX=.@.r.e.i.l.8.w.w.w.s.s.0.w.w.p.p.i.i.i.a.0.0.p.d.d.e.w.d.l.a.a.i.i.i.p.p.8.i.i.i.p.p.d.e.e.y.V.@.qXsXdXmX5X2 X . ",
"S  .1 kXPXmXVX..V.,X>X`.|.|.&X%X{.%X/.).}.{.%X1X).}. X`.|.'.).%X1X%X X).|.`.].|.).<X<X}.[.}.|.`.(.}.1X&X[.:X#XH *.CXmXHX8XL _ F ",
"{  .1 kXNXkXVX| V.:XW.k.T.E.(.F.J.j.R.).S.F.J.J.G.W.F.c.!.!.D.G.F.(.D.R.E.b.v.c.F.(.(.W.D.D.T.T.G.F.{.W.D.L.Y.Z *.hXkXHX4X2  .} ",
"R o.1 lXvXpXsX*.@.r.q.7.9.3.7.7.3.3.9.<.3.e.q.7.3.3.e.9.<.<.9.q.e.e.3.9.4.4.9.w.e.9.5.4.3.5.e.3.q./ 7.7.7.q.^ @.qXwX8XHX5X2 o.R ",
"q P > lXvXiXaXeXo.# g n v x n l b l c >.n l x n n l x c v c v x x x x b c x c s x x d x b x s v l V z V z p # U.ZX8XdXGX5XI r Z ",
"e y 1 kXnXfXgXeX+.& z z.).j.F.g.p.v v.m.h.h.x.x.x.g.9.8.m.f.x.h.j.x.x.w.<.x.(.j.x.S.g.S.D.w.<.[.c.g.g.y.q.f . +XwX8XfXHX4X2 w J ",
"F t 1 lXNXMXHXKX+X& g S.}.T.[.{.S.c '.'.k.).W.(.D.F.8.8.*XE.E.[.(.).W.h.v [.&Xc.).F.D.[.W.p.4.&XE.m.R.z./ # O VXKXHXnXIX4X) [ G ",
"9 t > zXMXfXgXhX$.o g J.*Xn.~.Q.x.c |.'.T.W.R.R.F.W.8.i.|.n.Q. XR.W.E.h.>.).}.c.R.).R.R.(.s.1.;X/.m.R.H.q.# O qXgXdXfXHX4X2 [ u ",
"* , < zXlXdXiXwX+.O g H.}.m.~.Q.F.v }.`.R.R.F.W.F.W.9.w.|.!.W.[.T.W.).j.>.[.}.x.F.D.W.R.c.d.<.<X_.c.c.C.q.a O *.gXdX7XHX5X1 , 5 ",
"4 t 1 zXlXgX9XeXo.& j I.>XW.R.F.F.l *X}.W.).F.G.S.(.3.9.&X}.).{.F.W.[.F.d }.1XS.[.F.W.W.D.p.3.1X XG.L.K.r.p O qX9XzX8XDX6X) , , ",
"4 y ) hXsX6XrX*.[ @ h Z.Y.K.A.A.y.N H.P.I.K.A.B.A.A.~ q.P.J.I.K.K.A.K.B.V A.Y.B.B.A.A.A.A.u.B P.K.B.K.Z.O.% o $.0X%.6XyXOXX.5 5 ",
"q e y y t y [ [ { e q D G A H W G D A ^ ^ H W W W G Z Z A A W G H G G J h ; h ; J Z H W A A J A Z Z Z J 7 9 5 t t t t 5 4 o.4 y ",
".     8 o . .       X o o o o o X X o o . o . . .       o . . . . .               .       . .   X X X $ $ $ 5 + +     . .       "
};
